X:1
T:f
T:The Stars and Stripes Forever 
T:John Phillip Sousa
T:arr. Maxence Toureche
C:John Phillip Sousa
%%score 1 2
L:1/8
M:2/2
K:Eb
V:1 bass nm="Trombone" snm="Tbn."
V:2 treble transpose=-2 nm="Trompette en Si♭" snm="Tromp. Si♭"
V:1
 E4 (D3 E) | C2 E2 C4 | =B,4 B,4 | B,2 z2 z4 |: (E3 F) (D3 E) | (C3 D) F2 z2 | (E3 F) (D3 E) | %7
 (C3 D) F2 z2 | (G3 A) (F3 G) | (E3 F) (D3 E) | (C3 D) (E3 F) | G4 G,4 | E2 z2 B,2 z2 | %13
 E2 z2 B2 z2 | F z (B,,=A,, B,,A,,) B,,2 | F, z (B,,=A,, B,,A,,) B,,2 | E,2 z2 B,2 z2 | %17
 E,2 z2 B,2 z2 | F, z (=A,,G,, A,,G,,) A,,2 |1 B,2 z2 B,4 :|2 B,2 z4 z2!ff! |: E,2 z2 B,2 z2 | %22
!mp! F,2 z2 B,2 z2 | D2 z2 B,2 z2 | E,2 z2 B,2 z2 | A,2 z2 A,2 z2 | =A,2 z2 A,2 z2 | G,2 z2 (E,4 | %28
 F,4 B,4) | E,2 z2 B,2 z2 | F,2 z2 B,2 z2 | D2 z2 B,2 z2 | E,4 _D4 | F,4 =E,4 | B,2 z2 E,2 z2 | %35
 D2 z2 B,2 z2 |1 E,2 z2 z4 :|2 A,,2 z2 E,2 z2 || (E4 _D2 C2) | (C4 !>!=B,2 C2) | (C8 | %41
 C4) !>!=B,2 C2 | (C4 !>!=B,2 C2) | A,2 z2 z2 E,2 | _D8 | B,6 B,2 | (B,4 =A,2 B,2) | %47
 (B,4 =A,2 B,2) | (_D8 | _D4) (C2 B,2) | (C2 E6) | _D,2 z2 z2 D,2 | (E,4 B,4 | G,4 E,4) | %54
 A,2 z2 z2 E,2 | A,2 z2 z2 E,2 | A,2 z2 z2 E,2 | A,2 z2 z2 E,2 | G,2 z2 z2 C,2 | G,2 z2 z2 C,2 | %60
 F,2 z2 z2 C,2 | F,2 z2 z2 A,2 | (A,4 G,2 A,2) | (=B,4 _B,2 A,2) | (_D8 | _D2) z2 z2 E,2 | %66
 F,2 z2 z2 E,2 | A,2 z2 z2 A,2 | G,2 z2 z2 E,2 | A,2 z2!mp! z4 | z8 | z4 z2 z2 | %72
!f! !^!F,2 !^!=E,2 !^!_D4 | !^!C2 z2!mp! C4 | z8 | !^!A,2 !^!G,2 z2 z2 | !^!A,2 !^!G,2 !^!=E4 | %77
 !^!E2 z2 z4 | !^!E,3 .E, .E,2 .E,2 | !^!E,2 z2 z4 | !^!C,2 z2 z4 | !^!A,,2 z2 z4 | %82
 !^!^F,3 .F, .F,2 .F,2 | !^!^F,2 z2 z4 | !^!D,2 z2 z4 | B,2 A,2 z4 | !^!B,3 .B, .B,2 .B,2 | %87
 !^!G,2 !^!G,2 z2 z2 | !^!B,3 .B, .B,2 .B,2 | G,2 G,4 z2 | B,4 =A,4 | A,4 G,4 | ^F,4 =F,4 | %93
 _F,2 !^!E,2 !^!_A,2 !^!E,2 |]!p! (E4 _D2 C2) | (C4 !>!=B,2 C2) | (((C8 | C4)) !>!=B,2 C2) | %98
 (C4 !>!=B,2 C2) | C2 z2 z2 E2 | (_D8 | B,6) B,2 | (B,4 =A,2 B,2) | (B,4 =A,2 B,2) | _D8 | %105
 _D4 (C2 B,2) | (C2 E6) | !^!F6 (F2 | (B,8) | B,4) E4 | (E4 _D2 C2) | (C4 !>!=B,2 C2) | (C8 | %113
 C4) (=B,2 C2) | C4 (=B,2 C2) | E2 z2 z2 A,2 | (B,8 | A,6) A,2 | (A,4 G,2 A,2) | (=B,4 _B,2 A,2) | %120
 (A,8 | A,2) A,2 B,2 C2 | z2 A,2 B,2 C2 | z2 (E,2 F,2 C2) | (B,8 | A,2) z2 z4 |!ff! A,2 z2 z2 E,2 | %127
 A,2 z2 z2 E,2 | A,2 z2 z2 E,2 | A,2 z2 z2 E,2 | A,2 z2 z2 E,2 | A,2 z2 z2 E,2 | B,2 z2 z2 E,2 | %133
 B,2 z2 z2 E,2 | G,2 z2 z2 E,2 | G,2 z2 z2 E,2 | B2 z2 z2 E2 | B2 z2 z2 E2 | A2 z2 z2 A2 | %139
 _D2 z2 z2 D2 | (E,4 B,4 | G,4) E,4 | A,2 z2 z2 E,2 | A,2 z2 z2 E,2 | A,2 z2 z2 E,2 | %145
 A,2 z2 z2 E,2 | G,2 z2 z2 A,2 | G,2 z2 z2 C,2 | F,2 z2 z2 C,2 | F,2 z2 z2 C,2 | E,2 z2 z2 A,2 | %151
 E2 z2 z2 A2 | E,2 z2 z2 A,2 | (C,2 A,,2) B,,2 C,2 | z2 A,,2 B,,2 C,2 | z2 (E,2 F,2 C2) | (B,8 | %157
 A,2) z2!fff! A,2 z2 |] %158
V:2
[K:F] f4 e3 f | d2 f4 g2 | _a2 =a2 b2 =b2 | c'2 z2 c4 |: A2 z A A2 A2 | A2 z A B2 B2 | %6
 G^FGA G2 =F2 | E2 D2 E2 C2 | c2 z c c2 c2 | c2 z c ^c2 c2 | d^cdf e2 d2 | ^c6 c2 | %12
 c z z c f z z d | c z =B z c z A z | G z z2 z4 | G z z2 z4 | c z z c f z z d | c z =B z c z A z | %18
 G z z2 z4 |1 C2 z2 c4 :|2 C2 z2 (c3 B) |: A4 (d3 c) | E2 e2 D2 d2 | C2 c2 B,2 B2 | A,2 A2 (G3 A) | %25
 B2 d4 f2 | G2 e2 F2 f2 | A,2 A2 A2 A2 | G,2 G2 (c3 B) | A4 (d3 c) | E2 e2 D2 d2 | C2 c2 B,2 B2 | %32
 A,2 A2 (G3 A) | (B2 d2) (g3 f) | (A2 c2) (F3 A) | G,2 G2 G2 G2 |1 f2 z2 (c3 B) :|2 f2 z2 f4 || %38
 (f4 _e2 d2) | (d4 ^c2 d2) | ((d8 | d4) ^c2 d2) | (d4 ^c2 d2) | (f4 d3 f) | (_e8 | c6) c2 | %46
 (c4 =B2 c2) | (c4 =B2 c2) | (_e8 | _e4) (d2 c2) | (d2 f6) | g6 (g2 | (c8) | c4) f4 | (f4 _e2 d2) | %55
 (d4 ^c2 d2) | (d8 | d4) ^c2 d2 | (d4 ^c2 d2) | (_e2 d2 c3 a) | (c8 | B6) B2 | (B4 A2 B2) | %63
 (_d4 c2 B2) | b8- | b2 (B2 c2 d2 | f) z (B2 c2 d2 | f) z (F2 G2 d2) | (c8 | %69
 B2) z2 .B,!f!.B,.B,.B, | (B,A,).A,.A, (A,G,).G,.G, | G,2 ^F,2 g2 ^f2 | G,2 ^F,2 g2 a2 | %73
 ^f2 z2 .D.D.D.D | (DC).C.C (CB,).B,.B, | B,2 A,2 b2 a2 | B,2 A,2 b2 c'2 | a2 z2 (FAc_e) | %78
 _g3 g g2 g2 | _g2 f2 e2 _e2 | d2 _d2 c2 =B2 | _B2 _A2 (GBdf) | _a3 a a2 a2 | _a2 g2 _g2 f2 | %84
 e2 _e2 d2 _d2 | c2 B2 (Acfa) | c'3 c' c'2 c'2 | c'2 c'2 (Acfa) | c'3 c' c'2 c'2 | c'2 c'2 (Acfa) | %90
 c'3 (c' =b3) (b | _b3) (b a3) (a | _a3) (a g3) (g | _g2) f2 =g2 f2 |]!ff! Tf2 b2 A2 b2 | %95
 fgfd B2 F2 | Bcd_e f2 b2 | f8 | Tf2 b2 B2 b2 | fgfd B2 F2 | ABcd _e2 a2 | T_e8 | T_e2 a2 A2 a2 | %103
 _efec A2{F} A2 | ABcd _e2 a2 | T_e8 | d_efd Tf2 d2 | _efge Tg2 e2 | cd_ec TA2 a2 | Tg2 f2 _e2 c2 | %110
 Tf2 b2 B2 b2 | fgfd B2{F} B2 | Bcd_e f2 b2 | Tf8 | ^f2 a2 d2 a2 | cd_ed ^F2 ^f2 | d_edg d2 b2 | %117
 Td8 | T_e2 b2 e2 b2 | T^c2 b2 c2 b2 | Td2 b2 d2 b2 | (!trill(!Tf8 | (f8) |!<(! (f8)!<)! | f8) | %125
 b2 z2!fff! !^!b2 z2 |!ff! (f4 _e2 d2) | (d4 ^c2 d2) | (d8- | d4 ^c2 d2) | (d4 ^c2 d2) | %131
 (f4 d3 f) | (_e8 | c6) c2 | (c4 =B2 c2) | (c4 =B2 c2) | _e8- | e4 (d2 c2) | (d2 f6) | g6 g2 | c8 | %141
 c4 f4 | (f4 _e2 d2) | (d4 ^c2 d2) | d8- | d4 ^c2 d2 | (d4 ^c2 d2) | (_e2 d2 !courtesy!=c3 a) | %148
 (c8 | B6) B2 | (B4 A2 B2) | (_d4 c2 B2) | b8- | b2 (B2 c2 d2 | f) z (B2 c2 d2 | f) z (F2 G2 d2) | %156
 (c8 | B2) z2!fff! !^!b2 z2 |] %158

